local/share/icons/dracula-icons-main/scalable/apps/qemu-launcher.svg

<?xml version="1.0" encoding="UTF-8"?>
<svg xmlns="http://www.w3.org/2000/svg" xmlns:xlink="http://www.w3.org/1999/xlink" width="64" height="64" viewBox="0 0 64 64">
<path fill-rule="nonzero" fill="rgb(21.960784%, 21.960784%, 21.960784%)" fill-opacity="1" d="M 32 5 C 46.910156 5 59 17.085938 59 32 C 59 46.910156 46.910156 59 32 59 C 17.085938 59 5 46.910156 5 32 C 5 17.085938 17.085938 5 32 5 Z M 32 5 "/>
<path fill-rule="nonzero" fill="rgb(100%, 54.509804%, 23.529412%)" fill-opacity="1" d="M 32 14.496094 C 22.273438 14.496094 14.390625 22.378906 14.390625 32.105469 C 14.398438 39.683594 19.253906 46.40625 26.445312 48.796875 C 24.816406 44.277344 23.566406 37.296875 22.808594 33.941406 C 22.429688 32.457031 22.65625 30.976562 22.910156 29.488281 C 23.429688 27.941406 23.597656 26.328125 24.304688 24.839844 C 25.382812 23.910156 25.410156 22.21875 26.457031 21.40625 C 26.613281 21.5 26.714844 21.539062 26.789062 21.574219 L 26.898438 21.585938 L 26.910156 21.585938 C 27.058594 21.429688 25.445312 19.785156 26.941406 20.433594 C 27 19.574219 28.351562 20.230469 28.371094 19.476562 C 29.03125 20.019531 28.90625 19.792969 29.792969 19.691406 C 30.796875 19.050781 31.265625 21.203125 31.683594 20.003906 C 32.917969 20.160156 34.230469 20.550781 35.394531 20.941406 C 36.570312 21.195312 37.679688 21.851562 38.464844 22.757812 L 38.441406 22.757812 L 39.019531 23.511719 C 39.089844 23.640625 39.160156 23.773438 39.21875 23.910156 C 39.453125 25.84375 41.660156 25.820312 43.140625 26.519531 C 44.40625 26.953125 45.929688 27.621094 46.085938 29.105469 C 45.765625 29.039062 44.53125 27.632812 43.5625 27.488281 C 42.976562 27.453125 42.34375 27.292969 41.753906 27.082031 L 38.339844 26.46875 L 38.339844 26.457031 C 38.175781 26.433594 38 26.410156 37.832031 26.375 L 37.832031 26.386719 L 33.003906 25.808594 C 33.082031 25.859375 33.167969 25.933594 33.246094 26.003906 L 38.199219 26.941406 L 38.199219 26.929688 L 38.539062 27.015625 L 39.925781 27.320312 C 40.199219 27.34375 40.476562 27.386719 40.703125 27.429688 C 42.117188 27.804688 43.785156 27.738281 44.949219 28.699219 C 44.640625 29.265625 42.953125 28.945312 42.109375 28.871094 C 42.003906 28.851562 41.890625 28.839844 41.789062 28.816406 C 41.765625 28.816406 41.753906 28.804688 41.730469 28.804688 C 40.582031 28.628906 39.40625 28.617188 38.296875 28.949219 C 38.296875 28.949219 38.289062 28.949219 38.285156 28.949219 C 37.90625 29.0625 37.535156 29.230469 37.179688 29.433594 C 35.582031 30.335938 33.609375 30.667969 32.28125 31.96875 C 30.988281 33.324219 31.0625 35.199219 31.289062 36.941406 L 31.339844 36.941406 L 31.339844 37.382812 C 31.363281 37.535156 31.386719 37.6875 31.40625 37.835938 C 32.082031 41.355469 33.882812 44.585938 34.441406 48.136719 C 34.476562 48.5625 34.535156 49.039062 34.582031 49.503906 C 43.210938 48.226562 49.601562 40.824219 49.609375 32.105469 C 49.609375 22.378906 41.722656 14.496094 32 14.496094 Z M 34.71875 22.980469 C 34.1875 22.996094 33.773438 23.191406 33.65625 23.519531 C 33.46875 24.050781 34.105469 24.734375 35.085938 25.058594 C 36.066406 25.394531 37.011719 25.234375 37.203125 24.707031 C 37.390625 24.175781 36.753906 23.484375 35.769531 23.15625 C 35.40625 23.03125 35.039062 22.976562 34.71875 22.980469 Z M 34.71875 22.980469 "/>
</svg>

<svg width="64" height="64" version="1.1" viewBox="0 0 64 64" xmlns="http://www.w3.org/2000/svg">
 <g transform="matrix(1.1739 0 0 1.1739 3.8261 3.8261)">
  <path d="m24 1c12.703 0 23 10.297 23 23s-10.297 23-23 23-23-10.297-23-23 10.297-23 23-23z" fill="#383838"/>
 </g>
 <path d="m32 14.495a17.609 17.609 0 0 0-17.609 17.609 17.609 17.609 0 0 0 12.054 16.693c-1.6294-4.5196-2.8796-11.501-3.6368-14.855-0.37683-1.4862-0.15261-2.9653 0.1033-4.455 0.51652-1.5472 0.68674-3.159 1.3934-4.6487 1.0788-0.92856 1.1047-2.619 2.1506-3.4302 0.15613 0.09274 0.26061 0.1303 0.33339 0.16552l0.10917 0.01174h0.01174c0.15026-0.1573-1.465-1.7984 0.0317-1.1504 0.0587-0.86165 1.411-0.20309 1.431-0.95791v-0.0023c0.65739 0.5447 0.53413 0.31696 1.4204 0.216 1.0037-0.63861 1.4721 1.5143 1.89 0.31344 1.235 0.15613 2.5462 0.54587 3.7131 0.93796 1.1751 0.25122 2.2833 0.91096 3.0698 1.8172h-0.02348l0.57639 0.7513c0.07161 0.12913 0.14204 0.26413 0.20074 0.39913 0.23244 1.9358 2.4417 1.9088 3.9209 2.6084 1.2655 0.4367 2.7904 1.1011 2.9465 2.5885-0.3193-0.06809-1.5543-1.4756-2.5263-1.6165-0.58461-0.03522-1.2162-0.19604-1.8055-0.4097l-3.4137-0.61161v-0.01174c-0.1667-0.02353-0.34278-0.047-0.50831-0.08222v0.01174l-4.8307-0.57874c0.07865 0.05283 0.16552 0.12444 0.24183 0.19487l4.9539 0.93796v-0.0094l0.34278 0.08452 1.3852 0.30287c0.2747 0.02465 0.54939 0.06809 0.77713 0.1127 1.4122 0.3733 3.0827 0.30522 4.2449 1.2678-0.30639 0.56465-1.9957 0.24417-2.8397 0.17139-0.1033-0.01878-0.216-0.03052-0.31813-0.054-0.02348 0-0.03522-0.01174-0.0587-0.01174-1.1504-0.17609-2.3243-0.18783-3.4337 0.14439-0.0023 0-0.0082-0.0012-0.01174 0-0.38152 0.11504-0.7513 0.27939-1.107 0.48365-1.5989 0.90391-3.5687 1.2338-4.8976 2.5357-1.2913 1.3559-1.2209 3.2318-0.9943 4.9715h0.054v0.44374c0.02113 0.15261 0.04578 0.30287 0.06691 0.45196 0.67383 3.5194 2.4746 6.7488 3.0334 10.301 0.03522 0.42496 0.09391 0.90274 0.14087 1.3688a17.609 17.609 0 0 0 15.026-17.402 17.609 17.609 0 0 0-17.609-17.609zm2.7188 8.4874c-0.53296 0.01409-0.94617 0.20778-1.0636 0.53883-0.18783 0.52944 0.45196 1.2138 1.431 1.539 0.97904 0.33456 1.9264 0.17609 2.1166-0.35335 0.18783-0.52944-0.44844-1.222-1.4345-1.5519-0.36391-0.12326-0.729-0.17961-1.0495-0.17256z" fill="#ff8b3c"/>
</svg>
